X: 21133
T: Kas Abarh
R: hornpipe
M: 4/4
K: Dmajor
|:FG|A3 d cBAB|A2 Bc d2 A2|BABc d2 DF|E2 DCD2:|
|:FD|E3 G FEFG|A2 cB A2 D2|ABAG FEFG|A2 FE D2 FD|
E3 G FEFG|A2 cB A2 D2|ABAG FDEE|D6:|

